archdroid-icon-theme/Archdroid-Green/apps/scalable/xfce4-menueditor.svg

<svg fill="#4caf50" height="48" viewBox="0 0 36 48" width="48" xmlns="http://www.w3.org/2000/svg"><path d="m.0025 34.4975v7.5h7.5l22.13-22.13-7.5-7.5zm35.41-20.41c.78-.78.78-2.05 0-2.83l-4.67-4.67c-.78-.78-2.05-.78-2.83 0l-3.66 3.66 7.5 7.5zm-35.4125-2.0875v4h15.175781l4-4zm0 10v4h5.173828l4.001953-4zm30.824219 0-4 4h9.175781v-4zm-10 10-3.998047 4h19.173828v-4z" fill="#4caf50"/></svg>

<svg fill="#4caf50" height="48" version="1.1" viewBox="0 0 36 48" width="48" xmlns="http://www.w3.org/2000/svg"><path d="m .0025 34.4975l0 7.5 7.5 0L29.6325 19.8675 22.1325 12.3675.0025 34.4975ZM35.4125 14.0875c.78-.78.78-2.05 0-2.83l-4.67-4.67c-.78-.78-2.05-.78-2.83 0L24.2525 10.2475 31.7525 17.7475l3.66-3.66zM0 12l0 4 15.175781 0 4-4-19.175781 0zm0 10l0 4 5.173828 0 4.001953-4-9.175781 0zm30.824219 0l-4 4 9.175781 0 0-4-5.175781 0zm-10 10L16.826172 36 36 36l0-4-15.175781 0z" fill="#4caf50"/></svg>
